my_site/img/footer/carbon.svg

<svg width="24" height="27" viewBox="0 0 24 27" fill="none" xmlns="http://www.w3.org/2000/svg">
<g clip-path="url(#clip0)">
<path d="M23.71 2.21621C23.575 2.07651 23.4045 1.97979 23.2185 1.93742C23.0325 1.89504 22.8388 1.90878 22.66 1.97701L0.660001 10.297C0.470269 10.3719 0.306921 10.505 0.191652 10.6786C0.0763829 10.8523 0.0146484 11.0584 0.0146484 11.2694C0.0146484 11.4805 0.0763829 11.6865 0.191652 11.8602C0.306921 12.0339 0.470269 12.167 0.660001 12.2418L10.26 16.2354L14.1 26.2194C14.1721 26.4081 14.2958 26.5706 14.4557 26.6871C14.6157 26.8035 14.8049 26.8687 15 26.8746C15.2021 26.8703 15.3982 26.8024 15.5624 26.6799C15.7266 26.5573 15.8513 26.3859 15.92 26.1882L23.92 3.30821C23.9881 3.12421 24.0046 2.92386 23.9674 2.73052C23.9302 2.53718 23.8409 2.35881 23.71 2.21621ZM15 22.9226L12.21 15.6426L17 10.661L15.59 9.19461L10.76 14.2178L3.8 11.2746L21.33 4.69141L15 22.9226Z" fill="#8EC2F2"/>
</g>
<defs>
<clipPath id="clip0">
<rect width="24" height="26" fill="white" transform="translate(0 0.874634)"/>
</clipPath>
</defs>
</svg>

<svg width="24" height="27" fill="none" xmlns="http://www.w3.org/2000/svg"><g clip-path="url(#clip0)"><path d="M23.71 2.216a.99.99 0 00-.492-.279.964.964 0 00-.558.04l-22 8.32c-.19.075-.353.208-.468.382a1.07 1.07 0 000 1.181c.115.174.278.307.468.382l9.6 3.993 3.84 9.984c.072.19.196.352.356.468.16.116.349.182.544.188a.975.975 0 00.562-.195 1.03 1.03 0 00.358-.492l8-22.88a1.08 1.08 0 00-.21-1.092zM15 22.923l-2.79-7.28L17 10.66l-1.41-1.466-4.83 5.023-6.96-2.943L21.33 4.69 15 22.923z" fill="#8EC2F2"/></g><defs><clipPath id="clip0"><path fill="#fff" transform="translate(0 .875)" d="M0 0h24v26H0z"/></clipPath></defs></svg>
